src/assets/img/components/404/Sedan icon.svg

<svg width="90" height="30" viewBox="0 0 90 30" fill="none" xmlns="http://www.w3.org/2000/svg">
<path fill-rule="evenodd" clip-rule="evenodd" d="M65.4252 11.4386L65.298 11.8733L65.3706 12.3205L66.7246 20.6613V23.8984H59.3693C59.2835 24.6063 59.0841 25.2792 58.79 25.8984H66.7246C67.8292 25.8984 68.7246 25.003 68.7246 23.8984V20.5L67.3448 12L68.069 9.52391C68.4135 8.34599 67.6256 7.1385 66.4087 6.97936L61.7754 6.37347C61.6666 6.35924 61.5667 6.30599 61.4943 6.22362C58.0156 2.26746 53.0024 0 47.7344 0H34.0224C31.8645 0 29.7465 0.581409 27.891 1.68309L18.933 7.00192C18.624 7.18539 18.2713 7.28221 17.9119 7.28221H12.8448H12.5626C6.09099 7.28221 0.844758 12.5284 0.844758 19V22L0.31971 22.8187C-0.533932 24.1499 0.421931 25.8984 2.00326 25.8984H11.6417C12.6874 28.0997 14.9311 29.6217 17.5303 29.6217C21.1288 29.6217 24.046 26.7045 24.046 23.106C24.046 19.5075 21.1288 16.5903 17.5303 16.5903C13.9318 16.5903 11.0146 19.5075 11.0146 23.106C11.0146 23.3742 11.0309 23.6387 11.0623 23.8984H2.00326L2.52831 23.0796L2.84476 22.5862V22V19C2.84476 13.633 7.19556 9.28221 12.5626 9.28221H12.8448H17.9119C18.6306 9.28221 19.3361 9.08856 19.9541 8.72163L28.9121 3.4028C30.4586 2.48458 32.2239 2 34.0224 2H47.7344C52.4274 2 56.8934 4.01996 59.9924 7.54429C60.385 7.99081 60.9265 8.27948 61.5161 8.35658L66.1494 8.96248L65.4252 11.4386ZM47.0125 25.8984C48.0583 28.0997 50.302 29.6217 52.9012 29.6217C56.4997 29.6217 59.4169 26.7045 59.4169 23.106C59.4169 19.5075 56.4997 16.5903 52.9012 16.5903C49.3027 16.5903 46.3855 19.5075 46.3855 23.106C46.3855 23.3742 46.4017 23.6387 46.4332 23.8984H23.9984C23.9126 24.6063 23.7132 25.2792 23.4191 25.8984H47.0125ZM29.7949 10.0054C29.2426 10.0054 28.7949 10.4531 28.7949 11.0054C28.7949 11.5577 29.2426 12.0054 29.7949 12.0054H33.5182C34.0704 12.0054 34.5182 11.5577 34.5182 11.0054C34.5182 10.4531 34.0704 10.0054 33.5182 10.0054H29.7949ZM17.5303 27.6217C20.0242 27.6217 22.046 25.5999 22.046 23.106C22.046 20.6121 20.0242 18.5903 17.5303 18.5903C15.0364 18.5903 13.0146 20.6121 13.0146 23.106C13.0146 25.5999 15.0364 27.6217 17.5303 27.6217ZM57.4169 23.106C57.4169 25.5999 55.3951 27.6217 52.9012 27.6217C50.4073 27.6217 48.3855 25.5999 48.3855 23.106C48.3855 20.6121 50.4073 18.5903 52.9012 18.5903C55.3951 18.5903 57.4169 20.6121 57.4169 23.106ZM52.9014 25.106C54.0059 25.106 54.9014 24.2105 54.9014 23.106C54.9014 22.0014 54.0059 21.106 52.9014 21.106C51.7968 21.106 50.9014 22.0014 50.9014 23.106C50.9014 24.2105 51.7968 25.106 52.9014 25.106ZM19.5303 23.106C19.5303 24.2105 18.6349 25.106 17.5303 25.106C16.4257 25.106 15.5303 24.2105 15.5303 23.106C15.5303 22.0014 16.4257 21.106 17.5303 21.106C18.6349 21.106 19.5303 22.0014 19.5303 23.106Z" fill="#41456B"/>
<path d="M76.8447 9H83.7921" stroke="#41456B" stroke-width="2" stroke-linecap="round" stroke-linejoin="round"/>
<path d="M76.8447 15H88.8447" stroke="#41456B" stroke-width="2" stroke-linecap="round" stroke-linejoin="round"/>
<path d="M76.8447 21H80.6342" stroke="#41456B" stroke-width="2" stroke-linecap="round" stroke-linejoin="round"/>
</svg>

<svg width="90" height="30" fill="none" xmlns="http://www.w3.org/2000/svg"><path fill-rule="evenodd" clip-rule="evenodd" d="m65.425 11.439-.127.434.073.447 1.354 8.341v3.237h-7.356a6.472 6.472 0 0 1-.579 2h7.935a2 2 0 0 0 2-2V20.5l-1.38-8.5.724-2.476a2 2 0 0 0-1.66-2.545l-4.634-.606a.452.452 0 0 1-.28-.15A18.323 18.323 0 0 0 47.734 0H34.021a12.01 12.01 0 0 0-6.131 1.683l-8.958 5.319a2 2 0 0 1-1.021.28h-5.349C6.09 7.282.845 12.528.845 19v3l-.525.819c-.854 1.33.102 3.08 1.683 3.08h9.639a6.516 6.516 0 1 0-.58-2H2.003l.525-.82.317-.493V19a9.717 9.717 0 0 1 9.718-9.718h5.349a4 4 0 0 0 2.042-.56l8.958-5.32A10.01 10.01 0 0 1 34.022 2h13.712c4.693 0 9.16 2.02 12.258 5.544.393.447.934.735 1.524.813l4.633.605-.724 2.477Zm-18.412 14.46a6.517 6.517 0 1 0-.58-2H23.998a6.472 6.472 0 0 1-.579 2h23.594ZM29.795 10.004a1 1 0 1 0 0 2h3.723a1 1 0 0 0 0-2h-3.723ZM17.53 27.622a4.516 4.516 0 1 0 0-9.032 4.516 4.516 0 0 0 0 9.032Zm39.887-4.516a4.516 4.516 0 1 1-9.032 0 4.516 4.516 0 0 1 9.032 0Zm-4.516 2a2 2 0 1 0 0-4 2 2 0 0 0 0 4Zm-33.37-2a2 2 0 1 1-4 0 2 2 0 0 1 4 0Z" fill="#41456B"/><path d="M76.845 9h6.947m-6.947 6h12m-12 6h3.79" stroke="#41456B" stroke-width="2" stroke-linecap="round" stroke-linejoin="round"/></svg>
